static/assets/img/icons/theme/design/pen-ruler.svg

<svg height="24" viewBox="0 0 24 24" width="24" xmlns="http://www.w3.org/2000/svg"><g fill="none" fill-rule="evenodd"><path d="m0 0h24v24h-24z" opacity="0"/><g fill="#000"><path d="m3 16h2c.55228475 0 1-.4477153 1-1s-.44771525-1-1-1h-2v-2h2c.55228475 0 1-.4477153 1-1s-.44771525-1-1-1h-2v-2h2c.55228475 0 1-.44771525 1-1s-.44771525-1-1-1h-2v-2c0-.55228475.44771525-1 1-1h6c.5522847 0 1 .44771525 1 1v15c0 .5522847-.4477153 1-1 1h-6c-.55228475 0-1-.4477153-1-1z" opacity=".3"/><path d="m16 3h3c1.1045695 0 2 .8954305 2 2v10.2485298c0 .4844463-.1758365.9524262-.4948466 1.3170092l-2.6288651 3.0044172c-.181841.2078183-.4977223.228877-.7055406.047036-.0167054-.0146172-.0324188-.0303306-.047036-.047036l-2.6288651-3.0044172c-.3190101-.364583-.4948466-.8325629-.4948466-1.3170092v-10.2485298c0-1.1045695.8954305-2 2-2z"/></g></g></svg>

<svg width="24px" height="24px" viewBox="0 0 24 24" version="1.1" xmlns="http://www.w3.org/2000/svg" xmlns:xlink="http://www.w3.org/1999/xlink">
    <title>Icon For Pen&amp;ruller</title>
    <g stroke="none" stroke-width="1" fill="none" fill-rule="evenodd">
        <rect opacity="0" x="0" y="0" width="24" height="24"></rect>
        <path d="M3,16 L5,16 C5.55228475,16 6,15.5522847 6,15 C6,14.4477153 5.55228475,14 5,14 L3,14 L3,12 L5,12 C5.55228475,12 6,11.5522847 6,11 C6,10.4477153 5.55228475,10 5,10 L3,10 L3,8 L5,8 C5.55228475,8 6,7.55228475 6,7 C6,6.44771525 5.55228475,6 5,6 L3,6 L3,4 C3,3.44771525 3.44771525,3 4,3 L10,3 C10.5522847,3 11,3.44771525 11,4 L11,19 C11,19.5522847 10.5522847,20 10,20 L4,20 C3.44771525,20 3,19.5522847 3,19 L3,16 Z" fill="#000000" opacity="0.3"></path>
        <path d="M16,3 L19,3 C20.1045695,3 21,3.8954305 21,5 L21,15.2485298 C21,15.7329761 20.8241635,16.200956 20.5051534,16.565539 L17.8762883,19.5699562 C17.6944473,19.7777745 17.378566,19.7988332 17.1707477,19.6169922 C17.1540423,19.602375 17.1383289,19.5866616 17.1237117,19.5699562 L14.4948466,16.565539 C14.1758365,16.200956 14,15.7329761 14,15.2485298 L14,5 C14,3.8954305 14.8954305,3 16,3 Z" fill="#000000"></path>
    </g>
</svg>
